packages/icons/src/svg/file-move.svg

<svg xmlns="http://www.w3.org/2000/svg" viewBox="0 0 32 32">
	<path class="ti-file" d="M22.429 19L11 11v5H0v6h11v5z"/>
	<path class="ti-file-move-o-badge" d="M22 0H6v11h2V2h11v10h11v18H8v-3H6v5h26V10zm-1 10V2l8 8z"/>
</svg>

<svg xmlns="http://www.w3.org/2000/svg" viewBox="0 0 32 32">
  <path class="ti-file" d="M22.42857,19,11,11v5H0v6H11v5Z"/>
  <path class="ti-file-move-o-badge" d="M22,0H6V11H8V2H19V12H30V30H8V27H6v5H32V10ZM21,10V2l8,8Z"/>
</svg>
